dist/images/icons/bootstrap.svg

<svg width="44" height="45" viewBox="0 0 44 45" fill="none" xmlns="http://www.w3.org/2000/svg">
<path d="M28.5156 27.7188C28.5156 26.9375 28.3203 23.8125 24.2188 23.8125H16.3086V31.8203H24.2188C24.6094 31.8203 28.5156 31.918 28.5156 27.7188ZM23.6328 20.5898C23.6328 20.5898 27.3438 20.6875 27.3438 17.0742C27.3438 15.5117 27.0508 13.5586 23.6328 13.5586H16.3086V20.5898H23.6328ZM43.75 7.69922C43.6523 3.69531 40.4297 0.472656 36.4258 0.375H7.22656C3.22266 0.472656 0 3.69531 0 7.69922V36.8984C0 40.9023 3.22266 44.125 7.22656 44.125H36.4258C40.4297 44.125 43.6523 40.9023 43.75 36.8984V7.69922ZM33.0078 28.3047C33.0078 33.0898 29.1992 34.457 27.832 34.8477C25.4883 35.6289 24.3164 35.4336 11.8164 35.4336V9.94531H24.2188C32.0312 9.94531 31.8359 15.6094 31.8359 16.293C31.8359 18.9297 30.3711 20.6875 28.2227 21.6641V21.7617C32.3242 22.6406 33.0078 26.2539 33.0078 28.3047Z" fill="#fff"/>
</svg>

<svg width="44" height="45" fill="none" xmlns="http://www.w3.org/2000/svg"><path d="M28.516 27.719c0-.782-.196-3.907-4.297-3.907h-7.91v8.008h7.91c.39 0 4.297.098 4.297-4.101zm-4.883-7.13s3.71.099 3.71-3.515c0-1.562-.292-3.515-3.71-3.515h-7.324v7.03h7.324zM43.75 7.7A7.51 7.51 0 0036.426.375h-29.2C3.224.473 0 3.695 0 7.699v29.2a7.21 7.21 0 007.227 7.226h29.199c4.004 0 7.226-3.223 7.324-7.227V7.7zM33.008 28.305c0 4.785-3.809 6.152-5.176 6.543-2.344.78-3.516.586-16.016.586V9.945H24.22c7.812 0 7.617 5.664 7.617 6.348 0 2.637-1.465 4.395-3.613 5.371v.098c4.101.879 4.785 4.492 4.785 6.543z" fill="#fff"/></svg>
